svgs/sharp-light/shelves.svg

<svg xmlns="http://www.w3.org/2000/svg" viewBox="0 0 640 512"><!--! Font Awesome Pro 6.6.0 by @fontawesome - https://fontawesome.com License - https://fontawesome.com/license (Commercial License) Copyright 2024 Fonticons, Inc. --><path d="M32 0l0 16 0 144 576 0 0-144 0-16 32 0 0 16 0 144 0 16 0 16 0 224 0 16 0 16 0 48 0 16-32 0 0-16 0-48L32 448l0 48 0 16L0 512l0-16 0-48 0-16 0-16L0 192l0-16 0-16L0 16 0 0 32 0zm0 416l576 0 0-224L32 192l0 224zM448 32l-64 0 0 64 64 0 0-64zM384 0l64 0 32 0 0 32 0 64 0 32-32 0-64 0-32 0 0-32 0-64 0-32 32 0zM128 288l0 64 64 0 0-64-64 0zM96 256l32 0 64 0 32 0 0 32 0 64 0 32-32 0-64 0-32 0 0-32 0-64 0-32zm192 32l0 64 64 0 0-64-64 0zm-32-32l32 0 64 0 32 0 0 32 0 64 0 32-32 0-64 0-32 0 0-32 0-64 0-32z"/></svg>

<svg xmlns="http://www.w3.org/2000/svg" viewBox="0 0 640 512"><!--! Font Awesome Pro 6.4.2 by @fontawesome - https://fontawesome.com License - https://fontawesome.com/license (Commercial License) Copyright 2023 Fonticons, Inc. --><path d="M32 0V16 160H608V16 0h32V16 160v16 16V416v16 16 48 16H608V496 448H32v48 16H0V496 448 432 416 192 176 160 16 0H32zm0 416H608V192H32V416zM448 32H384V96h64V32zM384 0h64 32V32 96v32H448 384 352V96 32 0h32zM128 288v64h64V288H128zM96 256h32 64 32v32 64 32H192 128 96V352 288 256zm192 32v64h64V288H288zm-32-32h32 64 32v32 64 32H352 288 256V352 288 256z"/></svg>
